packages/foundations/assets/icons/functional/images/transportation/scooter_20.svg

<svg width="20" height="20" viewBox="0 0 20 20" fill="none" xmlns="http://www.w3.org/2000/svg">
<g clip-path="url(#clip0_187_936)">
<path fill-rule="evenodd" clip-rule="evenodd" d="M14.7782 4.00629C15.9829 4.00629 16.9949 5.10958 16.9949 6.23396L16.9999 8.99369C16.9999 9.21359 16.9275 9.42605 16.7958 9.59916L12.7182 13.7207C12.5617 13.8783 12.4008 13.9937 12.0083 13.9937C11.7467 13.9937 10.4122 13.9937 8.00501 13.9937C7.99257 15.0876 7.07527 15.9937 5.99992 15.9937C4.92458 15.9937 3.99992 15.1087 4.00624 13.9937H3.00012C2.45787 13.9937 2.00685 13.6071 2.00685 12.996L2.00012 11.683C2.00012 9.72333 3.53774 8.12262 5.47228 8.02139L7.64412 8.01629L7.37392 6.99169L4.98975 6.99225C4.39334 6.99169 3.99992 6.50509 3.99992 5.99225C3.99992 5.47941 4.37408 5.00629 4.98975 4.99225H7.5895C8.28084 4.99225 8.98286 5.5233 9.22321 6.18204L10.7689 12.0157H11.5919L14.9989 8.58169L14.9999 6.39439C14.9999 6.18204 14.9449 5.99225 14.6747 5.99225L13.007 5.98337C12.4547 5.98337 12.0083 5.54454 12.0083 4.99225C12.0083 4.47941 12.3317 4.00629 13.007 4.00629H14.7782ZM15.9999 11.9937C17.1045 11.9937 17.9999 12.8891 17.9999 13.9937C17.9999 15.0983 17.1045 15.9937 15.9999 15.9937C14.8954 15.9937 13.9999 15.0983 13.9999 13.9937C13.9999 12.8891 14.8954 11.9937 15.9999 11.9937ZM8.17835 9.99999L5.67324 10C4.80116 10 3.99992 10.8387 4.00624 11.5392C4.00203 11.6771 3.99992 11.8359 3.99992 12.0157L8.70012 12.0163L8.17835 9.99999Z" fill="#1A1C1F"/>
</g>
<defs>
<clipPath id="clip0_187_936">
<rect width="20" height="20" fill="white"/>
</clipPath>
</defs>
</svg>

<svg xmlns="http://www.w3.org/2000/svg" width="20" height="20" fill="none"><g clip-path="url(#a)"><path fill="#1A1C1F" fill-rule="evenodd" d="M14.778 4.006c1.205 0 2.217 1.104 2.217 2.228L17 8.994a1 1 0 0 1-.204.605l-4.078 4.122c-.156.157-.317.273-.71.273H8.005c-.012 1.094-.93 2-2.005 2s-2-.885-1.994-2H3c-.542 0-.993-.387-.993-.998L2 11.683c0-1.96 1.538-3.56 3.472-3.662l2.172-.005-.27-1.024H4.99c-.597 0-.99-.487-.99-1s.374-.986.99-1h2.6c.69 0 1.393.531 1.633 1.19l1.546 5.834h.823l3.407-3.434V6.394c0-.212-.054-.402-.324-.402l-1.668-.009a.99.99 0 0 1-.999-.99c0-.514.324-.987.999-.987zM16 11.994a2 2 0 1 1 0 4 2 2 0 0 1 0-4M8.178 10H5.673c-.872 0-1.673.839-1.667 1.54Q4 11.745 4 12.015h4.7z" clip-rule="evenodd"/></g><defs><clipPath id="a"><path fill="#fff" d="M0 0h20v20H0z"/></clipPath></defs></svg>
